!!!OTL: FRITZ STEFF DER STEHT HUEBSCH
!!!ARE: Europa, Mitteleuropa, Deutschland, Kuhlaendchen
!!!SCT: E1559
!!!YEM: Copyright 1995, estate of Helmut Schaffrath.
**kern
*ICvox
*Ivox
*M2/4
*k[f#]
*G:
{8d
=1
8g
8g
8b
8g
=2
8.dd
16ee
8dd}
{8b
=3
8dd
8dd
8cc
8a
=4
8g
8g
8b}
{8d
=5
8g
8g
8b
8g
=6
8.dd
16ee
8dd}
{8b
=7
8dd
8dd
8cc
8a
=8
4f#
8g}
==
!!!AGN: Staende -, Bauern - Lied, Flachsbrechen, bei der Arbeit
!!!ONB: ESAC (Essen Associative Code) Database: ERK3
!!!AMT: simple duple
!!!AIN: vox
!!!EED: Helmut Schaffrath
!!!EEV: 1.0
*-
